src/icons/svg/documentation.svg

<?xml version="1.0" encoding="UTF-8" standalone="no"?>
<svg width="128px" height="128px" viewBox="0 0 128 128" version="1.1" xmlns="http://www.w3.org/2000/svg" xmlns:xlink="http://www.w3.org/1999/xlink">
    <!-- Generator: Sketch 40 (33762) - http://www.bohemiancoding.com/sketch -->
    <title>documentation</title>
    <desc>Created with Sketch.</desc>
    <defs></defs>
    <g id="Page-1" stroke="none" stroke-width="1" fill="none" fill-rule="evenodd">
        <g id="documentation" fill="#000000">
            <path d="M71.9844055,44.8149883 L115.898635,44.8149883 L71.9844055,9.64246677 L71.9844055,44.8149883 L71.9844055,44.8149883 Z M16.0935673,0.049960918 L79.9688109,0.049960918 L127.875244,38.4199843 L127.875244,115.160031 C127.875244,118.552152 126.19282,121.805341 123.198087,124.203932 C120.203354,126.602524 116.141625,127.950039 111.906433,127.950039 L16.0935673,127.950039 C11.8583753,127.950039 7.7966457,126.602524 4.80191274,124.203932 C1.80717978,121.805341 0.124756348,118.552152 0.124756398,115.160031 L0.124756398,12.8399688 C0.124756398,5.74151449 7.23087719,0.0499610679 16.0935673,0.049960918 L16.0935673,0.049960918 Z M87.9532164,102.370023 L87.9532164,89.5800157 L16.0935673,89.5800157 L16.0935673,102.370023 L87.9532164,102.370023 L87.9532164,102.370023 Z M111.906433,76.7900078 L111.906433,64 L16.0935673,64 L16.0935673,76.7900078 L111.906433,76.7900078 L111.906433,76.7900078 Z" id="Shape"></path>
        </g>
    </g>
</svg>

<svg width="128" height="128" xmlns="http://www.w3.org/2000/svg"><path d="M71.984 44.815H115.9L71.984 9.642v35.173zM16.094.05h63.875l47.906 38.37v76.74c0 3.392-1.682 6.645-4.677 9.044-2.995 2.399-7.056 3.746-11.292 3.746H16.094c-4.236 0-8.297-1.347-11.292-3.746-2.995-2.399-4.677-5.652-4.677-9.044V12.84C.125 5.742 7.23.05 16.094.05zm71.86 102.32V89.58h-71.86v12.79h71.86zm23.952-25.58V64H16.094v12.79h95.812z" fill-rule="evenodd"/></svg>
